src/icons/mail.svg

<?xml version="1.0" encoding="UTF-8"?>
<svg width="22px" height="16px" viewBox="0 0 22 16" version="1.1" xmlns="http://www.w3.org/2000/svg" xmlns:xlink="http://www.w3.org/1999/xlink">
    <path d="M20.0664063,0 L1.93359375,0 C0.868742188,0 1.04805054e-13,0.828553846 1.04805054e-13,1.84615385 L1.04805054e-13,14.1538462 C1.04805054e-13,15.168 0.864875001,16 1.93359375,16 L20.0664063,16 C21.1285937,16 22,15.1742359 22,14.1538462 L22,1.84615385 C22,0.832 21.1351251,0 20.0664063,0 Z M19.7993985,1.23076923 L11.0409922,9.59314872 L2.20683204,1.23076923 L19.7993985,1.23076923 Z M1.2890625,13.8989949 L1.2890625,2.09513846 L7.49714454,7.97165128 L1.2890625,13.8989949 Z M2.20055859,14.7692308 L8.41255079,8.83815385 L10.5892188,10.8985436 C10.8411876,11.1370667 11.2478008,11.1362872 11.4987383,10.8966564 L13.6210937,8.87027692 L19.7994414,14.7692308 L2.20055859,14.7692308 Z M20.7109375,13.8989538 L14.5325899,8 L20.7109375,2.10100513 L20.7109375,13.8989538 Z"></path>
</svg>

<svg viewBox="0 0 22 16" xmlns="http://www.w3.org/2000/svg">
    <path d="M20.066 0H1.934C.869 0 0 .829 0 1.846v12.308C0 15.168.865 16 1.934 16h18.132C21.13 16 22 15.174 22 14.154V1.846C22 .832 21.135 0 20.066 0zM19.8 1.23l-8.758 8.363-8.834-8.362H19.8zM1.29 13.9V2.095l6.208 5.877-6.208 5.927zm.912.87l6.212-5.93 2.176 2.06a.666.666 0 00.91-.002l2.12-2.028 6.178 5.9H2.201zm18.51-.87L14.533 8l6.178-5.899v11.798z"/>
</svg>
